svgs/light/h1.svg

<svg xmlns="http://www.w3.org/2000/svg" viewBox="0 0 576 512"><!--! Font Awesome Pro 6.3.0 by @fontawesome - https://fontawesome.com License - https://fontawesome.com/license (Commercial License) Copyright 2023 Fonticons, Inc. --><path d="M560 416h-64V80c0-5.531-2.875-10.69-7.594-13.62c-4.734-2.906-10.61-3.156-15.56-.6875l-64 32c-7.906 3.969-11.11 13.56-7.156 21.47c3.969 7.875 13.55 11.12 21.47 7.156L464 105.9V416h-64c-8.844 0-16 7.156-16 16s7.156 16 16 16h160c8.844 0 16-7.156 16-16S568.8 416 560 416zM304 64C295.2 64 288 71.16 288 80v160H32v-160C32 71.16 24.84 64 16 64S0 71.16 0 80v352C0 440.8 7.156 448 16 448S32 440.8 32 432v-160h256v160c0 8.844 7.156 16 16 16s16-7.156 16-16v-352C320 71.16 312.8 64 304 64z"/></svg>

<svg xmlns="http://www.w3.org/2000/svg" viewBox="0 0 576 512"><!-- Font Awesome Pro 6.0.0-alpha2 by @fontawesome - https://fontawesome.com License - https://fontawesome.com/license (Commercial License) --><path d="M560 416H496V80C496 74.469 493.125 69.312 488.406 66.375C483.672 63.469 477.797 63.219 472.844 65.688L408.844 97.688C400.938 101.656 397.734 111.25 401.688 119.156C405.656 127.031 415.234 130.281 423.156 126.312L464 105.875V416H400C391.156 416 384 423.156 384 432S391.156 448 400 448H560C568.844 448 576 440.844 576 432S568.844 416 560 416ZM304 64C295.156 64 288 71.156 288 80V240H32V80C32 71.156 24.844 64 16 64S0 71.156 0 80V432C0 440.844 7.156 448 16 448S32 440.844 32 432V272H288V432C288 440.844 295.156 448 304 448S320 440.844 320 432V80C320 71.156 312.844 64 304 64Z"/></svg>
